X:365
T:Imeland Och Grimeland
S:As taught by Alicia Ericsson
S:Arranged by "Trouble with Latitude"
S:Transcribed by Doug Mast.
M:4/4
L:1/8
K:G
|: "D" A,G, A,B, A,2 A,2 | DE FE D2 D2 | "C"F3E C2 C2 | zE AF "G"D2 D2 |
| "D" A,G, A,B, A,2 A,2 | DE FE D2 D2 | "C"F3E CE AF | "G"D2 D2 "D"D4 :|
|: "D" d^c de =c2 cB | AB AF D2 D2 | "C"F3E C2 C2 | zE AF "G"D2 D2 |
| "D" d^c de =c2 cB | AB AF D2 D2 | "C"F3E CE AF | "G"D2 D2 "D"D4 :|
K:A
|: "(in A) A" ED EF E2 E2 | AB cB A2 A2 | "G"c3B G2 G2| zB ec "D" A2 A2 |
| "A" ED EF E2 E2 | AB cB A2 A2 | "G"c3B GB ec | "D"A2 A2 "A"A4 :|
|: "A" a^g ab =g2 gf | ef ec A2 A2|  "G"c3B G2 G2| zB ec "D" A2 A2 |
|"A" a^g ab =g2 gf | ef ec A2 A2|  "G"c3B GB ec | "D"A2 A2 "A"A4 :|

